X:320
T:Sailor on the Rock
Z: id:dc-reel-298
M:C
L:1/8
K:D Major
A|defd BAFB|ADFD FAA2|defd BAFB|A2df eBBA|!
defd BAFB|ADFD FAA2|defd BAFB|A2df edd|]!
e|faag fddf|gfga bgeg|faag fedB|ABdf e2d:|!

